; G-Code generated by Simplify3D(R) Version 4.1.2
; Jun 7, 2024 at 12:18:12 PM
; Settings Summary
;   processName,Process5
;   applyToModels,Vaso2
;   profileName,he3d (modified)
;   profileVersion,2022-11-22 16:24:33
;   baseProfile,Default (modified)
;   printMaterial,ABS
;   printQuality,High
;   printExtruders,
;   extruderName,Primary Extruder
;   extruderToolheadNumber,1
;   extruderDiameter,0.6
;   extruderAutoWidth,0
;   extruderWidth,0.5
;   extrusionMultiplier,1
;   extruderUseRetract,1
;   extruderRetractionDistance,3.6
;   extruderExtraRestartDistance,0.5
;   extruderRetractionZLift,0
;   extruderRetractionSpeed,3000
;   extruderUseCoasting,0
;   extruderCoastingDistance,0.2
;   extruderUseWipe,0
;   extruderWipeDistance,5
;   primaryExtruder,0
;   layerHeight,0.2
;   topSolidLayers,6
;   bottomSolidLayers,6
;   perimeterOutlines,1
;   printPerimetersInsideOut,1
;   startPointOption,2
;   startPointOriginX,0
;   startPointOriginY,0
;   sequentialIslands,0
;   spiralVaseMode,1
;   firstLayerHeightPercentage,100
;   firstLayerWidthPercentage,100
;   firstLayerUnderspeed,0.5
;   useRaft,0
;   raftExtruder,0
;   raftTopLayers,3
;   raftBaseLayers,2
;   raftOffset,3
;   raftSeparationDistance,0.1
;   raftTopInfill,100
;   aboveRaftSpeedMultiplier,0.3
;   useSkirt,1
;   skirtExtruder,0
;   skirtLayers,1
;   skirtOutlines,10
;   skirtOffset,0
;   usePrimePillar,0
;   primePillarExtruder,999
;   primePillarWidth,12
;   primePillarLocation,7
;   primePillarSpeedMultiplier,1
;   useOozeShield,0
;   oozeShieldExtruder,999
;   oozeShieldOffset,2
;   oozeShieldOutlines,1
;   oozeShieldSidewallShape,1
;   oozeShieldSidewallAngle,30
;   oozeShieldSpeedMultiplier,1
;   infillExtruder,0
;   internalInfillPattern,Full Honeycomb
;   externalInfillPattern,Rectilinear
;   infillPercentage,0
;   outlineOverlapPercentage,40
;   infillExtrusionWidthPercentage,100
;   minInfillLength,5
;   infillLayerInterval,1
;   internalInfillAngles,0,120,-120
;   overlapInternalInfillAngles,0
;   externalInfillAngles,45,-45
;   generateSupport,0
;   supportExtruder,0
;   supportInfillPercentage,40
;   supportExtraInflation,0
;   supportBaseLayers,1
;   denseSupportExtruder,0
;   denseSupportLayers,0
;   denseSupportInfillPercentage,65
;   supportLayerInterval,1
;   supportHorizontalPartOffset,0.4
;   supportUpperSeparationLayers,1
;   supportLowerSeparationLayers,1
;   supportType,0
;   supportGridSpacing,4
;   maxOverhangAngle,45
;   supportAngles,0
;   temperatureName,Primary Extruder,Cama Caliente
;   temperatureNumber,0,0
;   temperatureSetpointCount,1,1
;   temperatureSetpointLayers,1,1
;   temperatureSetpointTemperatures,230,90
;   temperatureStabilizeAtStartup,1,1
;   temperatureHeatedBed,0,1
;   fanLayers,1
;   fanSpeeds,0
;   blipFanToFullPower,0
;   adjustSpeedForCooling,1
;   minSpeedLayerTime,15
;   minCoolingSpeedSlowdown,20
;   increaseFanForCooling,0
;   minFanLayerTime,45
;   maxCoolingFanSpeed,100
;   increaseFanForBridging,0
;   bridgingFanSpeed,100
;   use5D,1
;   relativeEdistances,0
;   allowEaxisZeroing,1
;   independentExtruderAxes,0
;   includeM10123,0
;   stickySupport,1
;   applyToolheadOffsets,0
;   gcodeXoffset,0
;   gcodeYoffset,0
;   gcodeZoffset,0
;   overrideMachineDefinition,1
;   machineTypeOverride,1
;   strokeXoverride,180
;   strokeYoverride,180
;   strokeZoverride,180
;   originOffsetXoverride,90
;   originOffsetYoverride,90
;   originOffsetZoverride,0
;   homeXdirOverride,0
;   homeYdirOverride,0
;   homeZdirOverride,0
;   flipXoverride,1
;   flipYoverride,-1
;   flipZoverride,1
;   toolheadOffsets,0,0|0,0|0,0|0,0|0,0|0,0
;   overrideFirmwareConfiguration,0
;   firmwareTypeOverride,RepRap (Marlin/Repetier/Sprinter)
;   GPXconfigOverride,r2
;   baudRateOverride,115200
;   overridePrinterModels,0
;   printerModelsOverride
;   startingGcode,G28 ; home all axes
;   layerChangeGcode,
;   retractionGcode,
;   toolChangeGcode,
;   endingGcode,M104 S0 ; turn off extruder,M140 S0 ; turn off bed,G28;,M84 ; disable motors,
;   exportFileFormat,gcode
;   celebration,0
;   celebrationSong,Random Song
;   postProcessing,
;   defaultSpeed,3600
;   outlineUnderspeed,0.6
;   solidInfillUnderspeed,0.8
;   supportUnderspeed,0.8
;   rapidXYspeed,4200
;   rapidZspeed,1002
;   minBridgingArea,50
;   bridgingExtraInflation,0
;   bridgingExtrusionMultiplier,1
;   bridgingSpeedMultiplier,1
;   useFixedBridgingAngle,0
;   fixedBridgingAngle,0
;   applyBridgingToPerimeters,0
;   filamentDiameters,1.75|1.75|1.75|1.75|1.75|1.75
;   filamentPricesPerKg,46|46|46|46|46|46
;   filamentDensities,1.25|1.25|1.25|1.25|1.25|1.25
;   useMinPrintHeight,0
;   minPrintHeight,0
;   useMaxPrintHeight,0
;   maxPrintHeight,0
;   useDiaphragm,1
;   diaphragmLayerInterval,20
;   robustSlicing,1
;   mergeAllIntoSolid,0
;   onlyRetractWhenCrossingOutline,1
;   retractBetweenLayers,1
;   useRetractionMinTravel,0
;   retractionMinTravel,3
;   retractWhileWiping,0
;   onlyWipeOutlines,1
;   avoidCrossingOutline,0
;   maxMovementDetourFactor,3
;   toolChangeRetractionDistance,12
;   toolChangeExtraRestartDistance,-0.5
;   toolChangeRetractionSpeed,600
;   externalThinWallType,0
;   internalThinWallType,2
;   thinWallAllowedOverlapPercentage,15
;   singleExtrusionMinLength,1
;   singleExtrusionMinPrintingWidthPercentage,50
;   singleExtrusionMaxPrintingWidthPercentage,200
;   singleExtrusionEndpointExtension,0.2
;   horizontalSizeCompensation,0
G90
M82
M106 S0
M140 S90
M190 S90
M104 S230 T0
M109 S230 T0
G28 ; home all axes
; process Process5
; layer 1, Z = 0.200
T1
G92 E0.0000
G1 E-3.6000 F3000
; feature skirt
; tool H0.200 W0.500
G1 Z0.200 F1002
G1 X-0.141 Y-20.236 F4200
G1 E0.5000 F3000
G92 E0.0000
G1 X0.141 Y-20.236 E0.0117 F1800
G1 X2.255 Y-20.111 E0.0997
G1 X2.534 Y-20.078 E0.1115
G1 X4.621 Y-19.703 E0.1996
G1 X4.894 Y-19.636 E0.2113
G1 X6.920 Y-19.018 E0.2993
G1 X7.184 Y-18.920 E0.3111
G1 X9.122 Y-18.066 E0.3991
G1 X9.372 Y-17.938 E0.4108
G1 X11.194 Y-16.861 E0.4988
G1 X11.428 Y-16.704 E0.5105
G1 X13.114 Y-15.417 E0.5987
G1 X13.327 Y-15.233 E0.6104
G1 X14.846 Y-13.759 E0.6984
G1 X15.036 Y-13.551 E0.7101
G1 X16.371 Y-11.906 E0.7982
G1 X16.535 Y-11.677 E0.8099
G1 X17.666 Y-9.886 E0.8980
G1 X17.802 Y-9.639 E0.9097
G1 X18.712 Y-7.728 E0.9977
G1 X18.818 Y-7.466 E1.0094
G1 X19.498 Y-5.454 E1.0977
G1 X19.572 Y-5.183 E1.1094
G1 X20.008 Y-3.114 E1.1973
G1 X20.049 Y-2.836 E1.2090
G1 X20.237 Y-0.727 E1.2970
G1 X20.245 Y-0.446 E1.3087
G1 X20.183 Y1.672 E1.3968
G1 X20.157 Y1.953 E1.4085
G1 X19.845 Y4.048 E1.4966
G1 X19.786 Y4.323 E1.5083
G1 X19.228 Y6.366 E1.5963
G1 X19.138 Y6.633 E1.6080
G1 X18.342 Y8.595 E1.6961
G1 X18.221 Y8.850 E1.7078
G1 X17.201 Y10.700 E1.7956
G1 X17.051 Y10.938 E1.8073
G1 X15.815 Y12.662 E1.8955
G1 X15.637 Y12.881 E1.9073
G1 X14.206 Y14.445 E1.9954
G1 X14.004 Y14.641 E2.0071
G1 X12.399 Y16.024 E2.0952
G1 X12.175 Y16.195 E2.1069
G1 X10.420 Y17.377 E2.1949
G1 X10.178 Y17.521 E2.2066
G1 X8.292 Y18.489 E2.2947
G1 X8.034 Y18.602 E2.3064
G1 X6.055 Y19.337 E2.3942
G1 X5.787 Y19.419 E2.4059
G1 X3.723 Y19.919 E2.4941
G1 X3.445 Y19.969 E2.5059
G1 X1.341 Y20.220 E2.5940
G1 X1.059 Y20.236 E2.6057
G1 X-1.059 Y20.236 E2.6938
G1 X-1.341 Y20.220 E2.7055
G1 X-3.443 Y19.969 E2.7935
G1 X-3.720 Y19.919 E2.8052
G1 X-5.779 Y19.422 E2.8933
G1 X-6.048 Y19.340 E2.9050
G1 X-8.034 Y18.602 E2.9931
G1 X-8.292 Y18.489 E3.0048
G1 X-10.178 Y17.521 E3.0929
G1 X-10.420 Y17.377 E3.1046
G1 X-12.175 Y16.195 E3.1926
G1 X-12.399 Y16.024 E3.2043
G1 X-14.004 Y14.641 E3.2924
G1 X-14.206 Y14.445 E3.3041
G1 X-15.636 Y12.882 E3.3922
G1 X-15.813 Y12.664 E3.4039
G1 X-17.047 Y10.944 E3.4919
G1 X-17.198 Y10.705 E3.5036
G1 X-18.221 Y8.850 E3.5917
G1 X-18.342 Y8.596 E3.6034
G1 X-19.138 Y6.633 E3.6914
G1 X-19.228 Y6.366 E3.7032
G1 X-19.785 Y4.327 E3.7910
G1 X-19.843 Y4.052 E3.8027
G1 X-20.157 Y1.953 E3.8910
G1 X-20.183 Y1.672 E3.9027
G1 X-20.245 Y-0.446 E3.9908
G1 X-20.237 Y-0.727 E4.0025
G1 X-20.049 Y-2.835 E4.0905
G1 X-20.008 Y-3.114 E4.1022
G1 X-19.571 Y-5.187 E4.1903
G1 X-19.497 Y-5.459 E4.2020
G1 X-18.818 Y-7.467 E4.2901
G1 X-18.712 Y-7.728 E4.3018
G1 X-17.802 Y-9.639 E4.3898
G1 X-17.666 Y-9.885 E4.4015
G1 X-16.535 Y-11.677 E4.4896
G1 X-16.371 Y-11.906 E4.5013
G1 X-15.036 Y-13.551 E4.5894
G1 X-14.846 Y-13.759 E4.6011
G1 X-13.327 Y-15.233 E4.6891
G1 X-13.114 Y-15.417 E4.7008
G1 X-11.428 Y-16.704 E4.7890
G1 X-11.194 Y-16.861 E4.8007
G1 X-9.372 Y-17.938 E4.8887
G1 X-9.122 Y-18.066 E4.9004
G1 X-7.188 Y-18.918 E4.9883
G1 X-6.924 Y-19.016 E4.9999
G1 X-4.894 Y-19.637 E5.0882
G1 X-4.619 Y-19.703 E5.1000
G1 X-2.534 Y-20.078 E5.1880
G1 X-2.255 Y-20.111 E5.1997
G1 X-0.141 Y-20.236 E5.2878
G92 E0.0000
G1 E-3.6000 F3000
G1 X-0.126 Y-19.736 F4200
G1 E0.5000 F3000
G92 E0.0000
G1 X0.126 Y-19.736 E0.0105 F1800
G1 X2.210 Y-19.613 E0.0973
G1 X2.461 Y-19.583 E0.1078
G1 X4.517 Y-19.213 E0.1946
G1 X4.762 Y-19.154 E0.2051
G1 X6.760 Y-18.544 E0.2919
G1 X6.996 Y-18.456 E0.3024
G1 X8.906 Y-17.615 E0.3892
G1 X9.131 Y-17.499 E0.3997
G1 X10.927 Y-16.438 E0.4865
G1 X11.137 Y-16.298 E0.4969
G1 X12.799 Y-15.029 E0.5839
G1 X12.990 Y-14.864 E0.5944
G1 X14.487 Y-13.410 E0.6811
G1 X14.657 Y-13.224 E0.6916
G1 X15.973 Y-11.602 E0.7785
G1 X16.120 Y-11.397 E0.7889
G1 X17.235 Y-9.631 E0.8758
G1 X17.357 Y-9.411 E0.8862
G1 X18.255 Y-7.526 E0.9730
G1 X18.349 Y-7.292 E0.9835
G1 X19.020 Y-5.308 E1.0706
G1 X19.086 Y-5.065 E1.0811
G1 X19.515 Y-3.026 E1.1677
G1 X19.552 Y-2.777 E1.1782
G1 X19.738 Y-0.698 E1.2650
G1 X19.745 Y-0.446 E1.2754
G1 X19.683 Y1.642 E1.3623
G1 X19.661 Y1.893 E1.3728
G1 X19.352 Y3.959 E1.4596
G1 X19.300 Y4.206 E1.4701
G1 X18.750 Y6.220 E1.5569
G1 X18.669 Y6.459 E1.5674
G1 X17.884 Y8.394 E1.6542
G1 X17.776 Y8.621 E1.6647
G1 X16.770 Y10.446 E1.7513
G1 X16.636 Y10.658 E1.7617
G1 X15.417 Y12.358 E1.8487
G1 X15.258 Y12.555 E1.8592
G1 X13.847 Y14.097 E1.9461
G1 X13.667 Y14.272 E1.9566
G1 X12.084 Y15.636 E2.0434
G1 X11.884 Y15.789 E2.0539
G1 X10.153 Y16.955 E2.1407
G1 X9.936 Y17.083 E2.1511
G1 X8.077 Y18.037 E2.2380
G1 X7.846 Y18.139 E2.2485
G1 X5.895 Y18.863 E2.3350
G1 X5.655 Y18.937 E2.3455
G1 X3.620 Y19.429 E2.4325
G1 X3.371 Y19.474 E2.4430
G1 X1.296 Y19.721 E2.5299
G1 X1.045 Y19.736 E2.5404
G1 X-1.045 Y19.736 E2.6272
G1 X-1.296 Y19.721 E2.6377
G1 X-3.369 Y19.474 E2.7245
G1 X-3.617 Y19.430 E2.7350
G1 X-5.647 Y18.939 E2.8218
G1 X-5.888 Y18.866 E2.8323
G1 X-7.846 Y18.139 E2.9191
G1 X-8.077 Y18.037 E2.9296
G1 X-9.936 Y17.083 E3.0165
G1 X-10.153 Y16.955 E3.0270
G1 X-11.884 Y15.789 E3.1137
G1 X-12.084 Y15.636 E3.1242
G1 X-13.667 Y14.272 E3.2110
G1 X-13.847 Y14.097 E3.2215
G1 X-15.257 Y12.556 E3.3083
G1 X-15.416 Y12.360 E3.3188
G1 X-16.633 Y10.664 E3.4056
G1 X-16.767 Y10.451 E3.4161
G1 X-17.776 Y8.622 E3.5029
G1 X-17.884 Y8.394 E3.5134
G1 X-18.669 Y6.459 E3.6002
G1 X-18.750 Y6.220 E3.6107
G1 X-19.299 Y4.210 E3.6974
G1 X-19.351 Y3.964 E3.7078
G1 X-19.661 Y1.894 E3.7948
G1 X-19.683 Y1.642 E3.8053
G1 X-19.745 Y-0.446 E3.8922
G1 X-19.738 Y-0.698 E3.9027
G1 X-19.552 Y-2.776 E3.9894
G1 X-19.515 Y-3.026 E3.9999
G1 X-19.085 Y-5.070 E4.0867
G1 X-19.019 Y-5.313 E4.0972
G1 X-18.349 Y-7.293 E4.1841
G1 X-18.255 Y-7.526 E4.1946
G1 X-17.357 Y-9.411 E4.2814
G1 X-17.235 Y-9.631 E4.2918
G1 X-16.120 Y-11.397 E4.3787
G1 X-15.973 Y-11.602 E4.3891
G1 X-14.657 Y-13.224 E4.4760
G1 X-14.487 Y-13.410 E4.4865
G1 X-12.990 Y-14.864 E4.5733
G1 X-12.799 Y-15.029 E4.5837
G1 X-11.137 Y-16.298 E4.6707
G1 X-10.927 Y-16.438 E4.6811
G1 X-9.131 Y-17.499 E4.7679
G1 X-8.906 Y-17.615 E4.7784
G1 X-7.000 Y-18.455 E4.8650
G1 X-6.764 Y-18.542 E4.8755
G1 X-4.762 Y-19.154 E4.9625
G1 X-4.516 Y-19.213 E4.9730
G1 X-2.461 Y-19.583 E5.0598
G1 X-2.210 Y-19.613 E5.0703
G1 X-0.126 Y-19.736 E5.1571
G92 E0.0000
G1 E-3.6000 F3000
G1 X-0.111 Y-19.236 F4200
G1 E0.5000 F3000
G92 E0.0000
G1 X0.111 Y-19.236 E0.0092 F1800
G1 X2.166 Y-19.114 E0.0948
G1 X2.387 Y-19.088 E0.1041
G1 X4.414 Y-18.724 E0.1897
G1 X4.630 Y-18.671 E0.1990
G1 X6.599 Y-18.070 E0.2845
G1 X6.808 Y-17.993 E0.2938
G1 X8.691 Y-17.163 E0.3794
G1 X8.889 Y-17.061 E0.3886
G1 X10.661 Y-16.015 E0.4741
G1 X10.845 Y-15.891 E0.4834
G1 X12.483 Y-14.640 E0.5691
G1 X12.652 Y-14.495 E0.5783
G1 X14.128 Y-13.062 E0.6639
G1 X14.278 Y-12.898 E0.6731
G1 X15.576 Y-11.299 E0.7587
G1 X15.705 Y-11.118 E0.7680
G1 X16.805 Y-9.377 E0.8536
G1 X16.912 Y-9.182 E0.8628
G1 X17.797 Y-7.324 E0.9484
G1 X17.881 Y-7.118 E0.9576
G1 X18.541 Y-5.162 E1.0435
G1 X18.600 Y-4.948 E1.0527
G1 X19.023 Y-2.937 E1.1381
G1 X19.055 Y-2.718 E1.1474
G1 X19.238 Y-0.668 E1.2329
G1 X19.245 Y-0.446 E1.2422
G1 X19.184 Y1.613 E1.3278
G1 X19.164 Y1.834 E1.3370
G1 X18.860 Y3.871 E1.4226
G1 X18.814 Y4.088 E1.4319
G1 X18.271 Y6.074 E1.5174
G1 X18.200 Y6.285 E1.5267
G1 X17.427 Y8.192 E1.6123
G1 X17.331 Y8.393 E1.6215
G1 X16.340 Y10.191 E1.7069
G1 X16.221 Y10.379 E1.7161
G1 X15.019 Y12.055 E1.8019
G1 X14.879 Y12.228 E1.8111
G1 X13.488 Y13.748 E1.8968
G1 X13.329 Y13.903 E1.9060
G1 X11.769 Y15.247 E1.9916
G1 X11.592 Y15.382 E2.0009
G1 X9.886 Y16.532 E2.0864
G1 X9.694 Y16.645 E2.0957
G1 X7.862 Y17.585 E2.1813
G1 X7.658 Y17.675 E2.1906
G1 X5.734 Y18.390 E2.2759
G1 X5.523 Y18.454 E2.2851
G1 X3.516 Y18.940 E2.3709
G1 X3.297 Y18.980 E2.3802
G1 X1.252 Y19.223 E2.4658
G1 X1.030 Y19.236 E2.4751
G1 X-1.030 Y19.236 E2.5607
G1 X-1.252 Y19.223 E2.5699
G1 X-3.295 Y18.980 E2.6555
G1 X-3.514 Y18.940 E2.6647
G1 X-5.515 Y18.457 E2.7503
G1 X-5.728 Y18.392 E2.7596
G1 X-7.658 Y17.675 E2.8452
G1 X-7.862 Y17.585 E2.8544
G1 X-9.694 Y16.645 E2.9401
G1 X-9.886 Y16.532 E2.9493
G1 X-11.592 Y15.382 E3.0348
G1 X-11.769 Y15.247 E3.0441
G1 X-13.329 Y13.903 E3.1297
G1 X-13.488 Y13.748 E3.1389
G1 X-14.878 Y12.229 E3.2245
G1 X-15.018 Y12.057 E3.2338
G1 X-16.218 Y10.384 E3.3193
G1 X-16.337 Y10.197 E3.3286
G1 X-17.331 Y8.393 E3.4142
G1 X-17.427 Y8.192 E3.4234
G1 X-18.200 Y6.285 E3.5090
G1 X-18.272 Y6.074 E3.5183
G1 X-18.813 Y4.092 E3.6037
G1 X-18.859 Y3.876 E3.6129
G1 X-19.164 Y1.834 E3.6987
G1 X-19.184 Y1.612 E3.7080
G1 X-19.245 Y-0.446 E3.7936
G1 X-19.238 Y-0.668 E3.8028
G1 X-19.055 Y-2.717 E3.8884
G1 X-19.023 Y-2.937 E3.8976
G1 X-18.599 Y-4.952 E3.9832
G1 X-18.540 Y-5.167 E3.9925
G1 X-17.880 Y-7.118 E4.0781
G1 X-17.797 Y-7.324 E4.0873
G1 X-16.912 Y-9.182 E4.1729
G1 X-16.805 Y-9.377 E4.1821
G1 X-15.705 Y-11.118 E4.2677
G1 X-15.576 Y-11.299 E4.2770
G1 X-14.278 Y-12.898 E4.3626
G1 X-14.128 Y-13.062 E4.3718
G1 X-12.652 Y-14.495 E4.4574
G1 X-12.483 Y-14.640 E4.4666
G1 X-10.845 Y-15.891 E4.5523
G1 X-10.661 Y-16.015 E4.5616
G1 X-8.889 Y-17.061 E4.6471
G1 X-8.691 Y-17.163 E4.6564
G1 X-6.812 Y-17.991 E4.7418
G1 X-6.604 Y-18.068 E4.7510
G1 X-4.630 Y-18.672 E4.8368
G1 X-4.413 Y-18.724 E4.8461
G1 X-2.387 Y-19.088 E4.9317
G1 X-2.166 Y-19.114 E4.9409
G1 X-0.111 Y-19.236 E5.0265
G92 E0.0000
G1 E-3.6000 F3000
G1 X-0.096 Y-18.736 F4200
G1 E0.5000 F3000
G92 E0.0000
G1 X0.096 Y-18.736 E0.0080 F1800
G1 X2.122 Y-18.616 E0.0924
G1 X2.313 Y-18.593 E0.1004
G1 X4.311 Y-18.234 E0.1848
G1 X4.498 Y-18.189 E0.1928
G1 X6.439 Y-17.596 E0.2772
G1 X6.620 Y-17.529 E0.2852
G1 X8.476 Y-16.711 E0.3695
G1 X8.648 Y-16.623 E0.3775
G1 X10.394 Y-15.592 E0.4618
G1 X10.554 Y-15.485 E0.4698
G1 X12.168 Y-14.252 E0.5543
G1 X12.314 Y-14.126 E0.5623
G1 X13.769 Y-12.713 E0.6466
G1 X13.899 Y-12.571 E0.6546
G1 X15.178 Y-10.995 E0.7390
G1 X15.290 Y-10.839 E0.7470
G1 X16.374 Y-9.123 E0.8314
G1 X16.467 Y-8.954 E0.8394
G1 X17.339 Y-7.123 E0.9237
G1 X17.412 Y-6.944 E0.9318
G1 X18.063 Y-5.016 E1.0164
G1 X18.113 Y-4.830 E1.0244
G1 X18.530 Y-2.849 E1.1085
G1 X18.559 Y-2.659 E1.1165
G1 X18.739 Y-0.638 E1.2009
G1 X18.745 Y-0.446 E1.2089
G1 X18.684 Y1.583 E1.2933
G1 X18.667 Y1.775 E1.3013
G1 X18.368 Y3.782 E1.3856
G1 X18.328 Y3.971 E1.3937
G1 X17.793 Y5.928 E1.4780
G1 X17.731 Y6.110 E1.4860
G1 X16.969 Y7.990 E1.5704
G1 X16.886 Y8.164 E1.5784
G1 X15.909 Y9.937 E1.6625
G1 X15.806 Y10.099 E1.6705
G1 X14.621 Y11.752 E1.7550
G1 X14.500 Y11.902 E1.7631
G1 X13.130 Y13.400 E1.8475
G1 X12.991 Y13.534 E1.8555
G1 X11.454 Y14.859 E1.9399
G1 X11.301 Y14.976 E1.9479
G1 X9.619 Y16.109 E2.0322
G1 X9.453 Y16.207 E2.0402
G1 X7.647 Y17.134 E2.1246
G1 X7.470 Y17.211 E2.1326
G1 X5.574 Y17.916 E2.2167
G1 X5.390 Y17.972 E2.2247
G1 X3.413 Y18.451 E2.3093
